assets/img/icons/profile-close.svg

<?xml version="1.0" encoding="UTF-8"?>
<svg width="24px" height="24px" viewBox="0 0 24 24" version="1.1" xmlns="http://www.w3.org/2000/svg" xmlns:xlink="http://www.w3.org/1999/xlink">
    <!-- Generator: Sketch 46.2 (44496) - http://www.bohemiancoding.com/sketch -->
    <title>Combined Shape</title>
    <desc>Created with Sketch.</desc>
    <defs></defs>
    <g id="Symbols" stroke="none" stroke-width="1" fill="none" fill-rule="evenodd">
        <g id="Profile/Listing/Feat" transform="translate(-336.000000, -15.000000)" fill="#FFFFFF">
            <g id="Close" transform="translate(336.000000, 15.000000)">
                <path d="M10.6486654,11.9939865 L7.313789,15.3288629 C6.92326471,15.7193872 6.92326471,16.3525521 7.313789,16.7430764 C7.70431329,17.1336007 8.33747827,17.1336007 8.72800256,16.7430764 L12.0628789,13.4082001 L15.3977553,16.7430764 C15.7882796,17.1336007 16.4214446,17.1336007 16.8119689,16.7430764 C17.2024932,16.3525521 17.2024932,15.7193872 16.8119689,15.3288629 L13.4770925,11.9939865 L16.8119689,8.65911012 C17.2024932,8.26858583 17.2024932,7.63542085 16.8119689,7.24489656 C16.4214446,6.85437227 15.7882796,6.85437227 15.3977553,7.24489656 L12.0628789,10.5797729 L8.72800256,7.24489656 C8.33747827,6.85437227 7.70431329,6.85437227 7.313789,7.24489656 C6.92326471,7.63542085 6.92326471,8.26858583 7.313789,8.65911012 L10.6486654,11.9939865 Z M12,24 C5.372583,24 0,18.627417 0,12 C0,5.372583 5.372583,0 12,0 C18.627417,0 24,5.372583 24,12 C24,18.627417 18.627417,24 12,24 Z" id="Combined-Shape"></path>
            </g>
        </g>
    </g>
</svg>

<svg width="24" height="24" xmlns="http://www.w3.org/2000/svg"><path d="M10.649 11.994l-3.335 3.335a1 1 0 101.414 1.414l3.335-3.335 3.335 3.335a1 1 0 001.414-1.414l-3.335-3.335 3.335-3.335a1 1 0 10-1.414-1.414l-3.335 3.335-3.335-3.335a1 1 0 00-1.414 1.414l3.335 3.335zM12 24C5.373 24 0 18.627 0 12S5.373 0 12 0s12 5.373 12 12-5.373 12-12 12z" fill="#FFF" fill-rule="evenodd"/></svg>
